X:1
T:Donne che di super
T:Eliseo Ghibel
T:Source : Primo libro de Madrigali a tre voci---Venetia---A.Gardano---1552. (First publication : Venetia---G.Scotto---1551) Editor : André Vieredeels (12/11/17). Notes : Original clefs : C2, C4, F3 Editorial accidentals above the staff
T:Donne che di super
T:©
T:©
T:©
T:©
T:©
T:©
C:Eliseo Ghibel
Z:©
%%score [ 1 2 3 ]
L:1/8
Q:1/4=120
M:4/4
K:C
V:1 treble nm="Alto" snm="A"
V:2 treble-8 nm="Tenor" snm="T"
V:3 bass nm="Bass" snm="B"
V:1
 E8 | F4 F2 A2- | A2 A2 F2 A2- | A2 B3 A A2- |"^#" A2 G2 A4 | z2 A2 A2 A2 | E4 z2 G2 | G2 G2 D4 | %8
w: Don-|ne, che di|_ su- per tan-|* to vi ca-|* * le,|che co- sa'e'a-|mor, che|co- s'e'a- mor,|
 z2 F4 D2- | D2 G4 E2- | E2 F4 ED | ^C4 z2 E2 | G2 G2 D2 D2 | F4 C4 | z2 G3 F E2- | ED D4 C2 | %16
w: s'e- gli'e|_ fran- ciu-|* l'o vec- *|chio, s'e-|gli ve- de per|gli'oc- chi|o per un|_ _ spec- *|
 D4 z2 E2- | E2 A4 F2- | F2 D4 G2- | G2 E4 F2 | G4 F2 E2 | D8 | ^C8 | z8 | F8 | A3 G F4 | E4 z4 | %27
w: chio, se|_ la pha-|* re- tra|_ tien se|por- * ta|l'a-|le,||deh|nol cer- ca-|te,|
 E8 | F6 E2- | E2 DC D4 | E2 E2 D3 C | B,2 A,4 G,2 | A,4 z2 E2- | E2 E4 E2 | F8 | E2 G2 G2 G2 | %36
w: deh|nol cer-|* * * ca-|te per men vo-|stro ma- *|le, che|_ glie si|tri-|sto, che glie si|
 A4 G2 E2- | E2 E2 E4 | E2 E4 E2 | F4 E3 E | G3 A B4- | B2 G2 A2 c2- | c2 B3 A A2- | A2 G2 A2 F2- | %44
w: tri- sto che|_ tro- van-|do lo- co|quin- di nol|cac- cia- reb-|* be'al- tro ch'el|_ fuo- * *|* * co, al-|
 F2 E3 D D2- | D2 C2 D4 | z8 | z8 | z8 | D4 E4 | C3 D EF G2- | G2 F2 E4 | D2 A,2 D3 C | %53
w: * tro ch'el fuo-|* * co,||||ma pur|vo- * * * dir-|* ve'il ve-|ro, e'un cen- to'un|
 B,3 A, G,2 G2 | G3 F E3 D | C4 z2 F2 | F3 E D3 C | D2 F4 E2- | ED D4 C2 | D8- | D8- | D8- | D8 |] %63
w: e doi tre, e'un|cen- to'un e doi|tre e'un|cen- to'un e doi|tre con gion-|* ti'a un ze-|ro.|_|||
V:2
 c8 | d4 d2 c2- | c2 A2 d2 f2- | f2 d4 c2 | d4 e4- | e8 | z2 e2 e2 e2 | B4 z2 d2 | d2 d2 A2 A2 | %9
w: Don-|ne, che di|_ su- per tan-|* to vi|ca- le,|_|che co- s'e'a-|mor, che|co- s'e'a- mor, s'e-|
 B2 B2 G4 | c4 d4 | e8- | e4 z2 B2 | d2 d2 A2 A2 | c4 G3 G | F2 F2 E4 |"^#" D2 A2 e4 | c4 A4 | %18
w: gli'e fran- ciu-|l'o vec|chio,|_ s'e-|gli ve- de per|gli'oc- chi o|per un spec-|chio, se la|pha- re-|
 d4 B4 | z2 G2 G2 F2 | E2 D2 A4- |"^#""^#""^#" A2 GF G4 | A8 | z8 | A8 | f3 e d4 | c4 z4 | c8 | %28
w: tra tien|se por- ta|l'a- * *||le,||deh,|nol cer- ca-|te,|deh,|
 c6 c2 | A8 | B2 c2 A3 G | F2 E2 D4 | E4 z2 c2- | c2 c4 c2 | A8 | c2 e2 e2 e2 | c4 e2 ^c2- | %37
w: nol cer-|ca-|te per men vo-|stro ma- *|le, che|_ glie si|tri-|sto, che glie si|tri- sto che|
 c2 ^c2 c4 | ^c2 c4 c2 |"^#" d4 c4 | z4 z2 B2 | d3 e f2 e2- | e2 d4 c2 | B4 d2 A2- | A2 c4 A2 | %45
w: _ tro- van-|do lo- co|quin- di|nol|cac- cia- reb- be'al-|* tro ch'el|fuo- co, al-|* tro ch'el|
 A4 F4 | G4 A4 | F3 G AB c2- | c2 B2 A4 | B2 G4 A2- | A2 c4 GA | Bc d4 c2 | d4 z2 D2 | d3 c B3 A | %54
w: fuo- co,|ma pur|vo- * * * dir|_ ve'il ve-|ro, ma pur|_ vo- dir _|_ _ ve'il ve-|ro, e'un|cen- to'un e doi|
 G4 z2 c2 | c3 B A3 G | F4 z2 _B2- | B2 A4 G2- | GF FE/D/ E4 | D4 z2 _B2- | B2 G4 A2 | _B8 | A8 |] %63
w: tre, e'un|cen- to'un e doi|tre con-|* gion- ti'a|_ un ze- * * *|ro, con-|gion- ti'a un|ze-|ro.|
V:3
 A,8 | D,4 D,2 F,2- | F,2 F,2 D,4 | F,2 G,4 A,2 | B,4 A,4- | A,4 z2 A,2 | A,2 A,2 E,4 | %7
w: Don-|ne, che di|_ su- per|tan- to vi-|ca- le,|_ che|co- sa'e'a- mor,|
 z2 G,2 G,2 G,2 | D,2 D,2 D,4 | G,4 E,4 | A,4 B,4 | A,8 | z2 E,2 G,2 G,2 | D,2 D,2 F,4 | %14
w: che co- s'e'a-|mor, s'e- gli'e|fran ciu-|l'o vec-|chio,|s'e- gli ve-|de per gli'oc-|
 C,4 z2 C,2 | D,2 D,2 A,,4 | D,4 A,,4 | A,4 F,4 | D,4 G,4 | E,6 D,2 | C,4 D,4 | B,,8 | A,,8 | z8 | %24
w: chi o|per un spec-|cio, se|la pha-|re- tra|tien se|por- ta|l'a-|le,||
 D,8 | F,3 C, D,E,F,G, |"^#" A,4 z4 | A,8 | F,6 C,2 | D,4 F,4 | E,2 C,2 F,3 E, | D,2 C,2 B,,4 | %32
w: deh,|nol cer- ca- * * *|te,|deh,|nol cer-|ca- te|per men vo- *|* stro ma-|
 A,,4 z2 A,,2- | A,,2 A,,4 A,,2 | D,8 | C,2 C,2 C,2 C,2 | F,4 E,2 A,2- | A,2 A,2 A,4 | %38
w: le, che|_ glie si|tri-|sto, che glie si|tri- sto che|_ tro- van-|
 A,2 A,4 A,2 | D,4 A,4 | z2 E,2 G,3 A, | B,3 C F,G,A,B, | C2 G,4 A,2 | E,4 z2 D,2- | D,2 C,4 D,2 | %45
w: do lo- co|quin- di|nol cac- cia-|reb- be'al- tro _ _ _|_ ch'el fuo-|co, al-|* tro ch'el|
 A,,4 D,4 | z2 C,4 D,2- | D,2 F,4 C,D, |"^#" E,F, G,4 F,2 | G,4 z4 | z8 | z4 z2 A,,2 | %52
w: fuo- co,|ma pur|_ vo dir- *|* * ve'il ve-|ro,||e'un|
 D,3 C, B,,3 A,, | G,,2 G,2 G,3 F, |"^#" E,3 D, C,4 | z2 F,2 F,3 E, | D,3 C, _B,,4 | z2 F,4 C,2- | %58
w: cen- to'un e doi|tre, e'un cen- to'un|e doi tre,|e'un cen- to'un|e doi tre|con gion-|
 C,2 D,2 A,,4 | D,4 z2 G,2- |"^b" G,2 B,4 F,2 | G,2 G,,3 A,, _B,,C, | D,8 |] %63
w: * ti'a'un ze-|ro, con|_ gion ti'a|un ze- * * *|ro.|

